X:1
T:A Prisoner for life
M:4/4
L:1/16
K:Eb
 B,B,| G6 G2 F- E3- E2B,2| C2 E4 F2 E6 z2| B6 B2B2 G4 GF| E6F-G F6|\
 EE| B6 BB G6 FF| E4 A3 A A6 BB| B- G3 G3 G F- E3- E2B,2| C E3- E2F2 E6||\
